X:1
T:Si grand beaulte
T:Si grand beaulte
T:Thomas Crecquillon
C:Thomas Crecquillon
%%score [ 1 2 [ 3 4 ] ]
L:1/8
Q:1/4=88
M:2/2
K:C
V:1 treble nm="Superius" snm="S"
V:2 treble nm="Altus" snm="A"
V:3 treble-8 nm="Tenor 1" snm="T 1"
V:4 treble-8 nm="Tenor 2" snm="T 2"
V:1
 z8 | A6 A2 | c6 BA | B2 d2 d2 d2 | c3 d e2 f2- | fe d4 c2 | d4 c4- | c2 c2 d2 d2 | e8 | %9
w: |Si grand|beaul- * *|té pe- rist en|peu _ _ d'heu-||* re,|_ aus- si se-|ra|
 z2 e2 e2 c2 | d2 e2 fedc | BAGF ED f2 | e2 d4 c2 | d2 A2 d4- | d2 d2 c4- | c4 B4 | z2 B2 c4- | %17
w: le de- sir|qu'en au- rez, _ _ _|_ _ _ _ _ _ _||* ou si'el-|* le du-|* re,|cer- tes|
 c2 B2 A2 G2 | A8 | z4 A4 |: c2 A2 e2 e2 | g3 f e2 d2 | c3 d ec f2 | e2 d4 c2 |1 d4 z2 A2 :|2 %25
w: _ vous ne de-|vez|l'es-|ti- mer bien si|le _ _ mieulx|ne _ _ _ de-|meu- * *|re, l'es-|
 e2 d4 c2 || d8- | d8 |] %28
w: meu- * *|re.|_|
V:2
 z4 z2 D2- | D2 D2 F4 | E2 C2 G4- | G2 G2 F3 G | A4 G2 F2 | A2 B4 A2- | A2 G2 A4 | z2 A2 A3 B | %8
w: Si|_ grand beaul-|té pe- rist|_ en peu _|d'heu- * *||* * re,|aus- si se-|
 c3 c c2 c2 | B2 B2 c2 A2 | B2 c3 B A2 | G2 B2 A2 c2 | B2 G2 A4 | F6 F2 | A2 A2 A4 | G8 | %16
w: ra le de- sir|qu'en au- rez, _|_ _ _ _|||* ou|si'el- le du-|re,|
 z2 G2 A4- | A2 G2 F2 ED | E4 F2 z D | F2 D2 A2 F2 |: E2 c4 c2 | G2 B2 c2 BA | G2 A2 B2 c2- | %23
w: cer- tes|_ vous ne de- *|* vez l'es-|ti- mer bien si|le mieulx ne|de- * meu- * *||
 c2 B2 A2 z E |1 F2 D2 A2 F2 :|2 c2 B2 A4 || F3 G A4- | A8 |] %28
w: * * re, l'es-|ti- me bien si|(meu)- * *|* * re.|_|
V:3
 d6 d2 | f3 e d4 | c2 e4 dc | d6 d2 | f2 f2 e2 d2 | f2 g3 f e2- | e2 d2 e4- | e2 e2 f2 f2 | %8
w: Si grand|beaul- * *||té pe-|rist en peu _|d'heu- * * *|* * re,|_ aus- si se-|
 g2 a2 e2 a2 | a2 g2 a2 e2 | f2 g2 agfe | d2 d2 cA a2 | gfed e4 | d6 d2 | f2 f2 e4- | e4 d4 | %16
w: ra le de- sir|qu'en au- rez, aus-|si se- ra _ _ _|_ le de sir qu'en|_ _ _ _ au-|rez, ou|si'el- le du-|* re,|
 z2 d2 f3 e | cd e3 d d2- | d2 c2 d4 | z8 |: z2 A2 c2 A2 | e3 d c2 d2 | e2 f2 g2 a2 | g2 f2 e4 |1 %24
w: cer- tes _|_ _ vous _ ne|_ de- vez||l'es- ti- mer|bien _ _ si|me mieulx ne de-|meu- * *|
 d4 z4 :|2 g2 f2 e4 || d8- | d8 |] %28
w: re|meu- * *|re.|_|
V:4
 z4 D4- | D4 D4 | A4 G4- | G2 G2 _B2 B2 |"^b" A3 B c2 d2- | dcBA G2 A2 | B4 A4- | A2 A2 d2 d2 | %8
w: Si|_ grand|beaul- té|_ pe- rist en|peu _ _ d'heu-||* re,|_ aus- si se-|
"^#" c2 A2 c3 d | e2 e2 A2 A2 | d2 c2 F4 | G4 A2 F2 | G2 B2 A4 | D4 z2 D2 | DEFG AGAB | c4 G4 | %16
w: ra le de- sir|qu'en au- rez, aus-|si se- ra|le de- sir|qu'en _ au-|rez, ou|si'el- * * * le _ _ _|du- re,|
 z2 G2 F4- |"^b" F2 G2 A2 B2 | A4 D4 | z2 D2 F2 D2 |: A4 A2 c2- | cB G2 A2 B2 |"^#" c2 A2 G2 F2 | %23
w: cer- tes|_ vous ne _|de- vez|l'es- ti- mer|bien si le|_ _ mieulx ne de-|meu- * * *|
 c2 d2 A4 |1 D2 z D F2 D2 :|2 c2 d2 A4 || D8- | D8 |] %28
w: |re, l'es- ti- mer|(meu)- * *|re.|_|

